brandFactory_export/2.Regular/Otros _2Regular.svg

<?xml version="1.0" encoding="UTF-8"?>
<svg width="24px" height="24px" viewBox="0 0 24 24" version="1.1" xmlns="http://www.w3.org/2000/svg" xmlns:xlink="http://www.w3.org/1999/xlink">
    <title>2.Regular/Otros _2Regular</title>
    <g id="Symbols" stroke="none" stroke-width="1" fill="none" fill-rule="evenodd">
        <g id="2.Regular/Otros-_2Regular" fill="#5CB615" fill-rule="nonzero">
            <path d="M12.8016807,15.7613445 C12.8016807,16.4033613 12.3243697,16.8907563 11.7092437,16.8907563 C11.0773109,16.8907563 10.6,16.4033613 10.6,15.7815126 L10.6,15.7613445 C10.6,15.1394958 11.0773109,14.6420168 11.6991597,14.6420168 C12.3243697,14.6453782 12.8016807,15.1394958 12.8016807,15.7613445 Z M19.312605,21.9697479 L19.312605,8.24201681 L16.5865546,8.24201681 C15.3831933,8.24201681 14.3478992,7.85210084 13.594958,7.10252101 C12.8184874,6.34285714 12.4184874,5.31092437 12.4184874,4.11428571 L12.4184874,1.45882353 L4.69411765,1.45882353 C4.60672269,1.45882353 4.47226891,1.58655462 4.46554622,1.66386555 L4.46554622,8.43697479 L4.51596639,18.0201681 L4.46554622,21.9798319 C4.46554622,22.0369748 4.57983193,22.1647059 4.69411765,22.1647059 L19.0840336,22.1647059 C19.2084034,22.1647059 19.312605,22.0571429 19.312605,21.9697479 L19.312605,21.9697479 Z M13.8537815,2.00336134 L13.8537815,4.11428571 C13.8537815,4.91428571 14.102521,5.57310924 14.589916,6.05042017 C15.0773109,6.52773109 15.7663866,6.77983193 16.589916,6.77983193 L18.7109244,6.77983193 L13.8537815,2.00336134 L13.8537815,2.00336134 Z M20.687395,6.90756303 C20.7243697,6.99495798 20.7445378,7.09243697 20.7445378,7.2 L20.7445378,21.9697479 C20.7445378,22.8638655 19.9882353,23.6235294 19.0806723,23.6235294 L4.6907563,23.6235294 C3.81008403,23.6235294 3.02689076,22.8537815 3.02689076,21.9697479 L3.07731092,18.010084 L3.02689076,8.43697479 L3.02689076,1.65378151 C3.02689076,0.786554622 3.82016807,0 4.6907563,0 L13.4504202,0 C13.7260504,0 13.994958,0.107563025 14.1865546,0.302521008 L20.4386555,6.45042017 C20.5630252,6.57815126 20.6403361,6.73277311 20.687395,6.90756303 L20.687395,6.90756303 Z M16.5294118,15.7613445 C16.5294118,16.4033613 16.0521008,16.8907563 15.4403361,16.8907563 C14.8084034,16.8907563 14.3310924,16.4033613 14.3310924,15.7815126 L14.3310924,15.7613445 C14.3310924,15.1394958 14.8084034,14.6420168 15.4302521,14.6420168 C16.0521008,14.6453782 16.5294118,15.1394958 16.5294118,15.7613445 Z M9.07058824,15.7613445 C9.07058824,16.4033613 8.59327731,16.8907563 7.97142857,16.8907563 C7.34957983,16.8907563 6.87226891,16.4033613 6.87226891,15.7815126 L6.87226891,15.7613445 C6.87226891,15.1394958 7.34957983,14.6420168 7.96134454,14.6420168 C8.59327731,14.6453782 9.07058824,15.1394958 9.07058824,15.7613445 Z" id="Otros-_2Regular"></path>
        </g>
    </g>
</svg>

<svg width="24" height="24" viewBox="0 0 24 24" xmlns="http://www.w3.org/2000/svg"><path d="M12.802 15.761c0 .642-.478 1.13-1.093 1.13-.632 0-1.109-.488-1.109-1.11v-.02c0-.622.477-1.119 1.1-1.119a1.1 1.1 0 011.102 1.12zm6.51 6.209V8.242h-2.725c-1.204 0-2.24-.39-2.992-1.14-.777-.76-1.177-1.791-1.177-2.988V1.46H4.694c-.087 0-.222.128-.228.205v6.773l.05 9.583-.05 3.96c0 .057.114.185.228.185h14.39c.124 0 .229-.108.229-.195zM13.855 2.003v2.111c0 .8.249 1.46.736 1.936.487.478 1.176.73 2 .73h2.12l-4.856-4.777zm6.833 4.905a.744.744 0 01.058.292v14.77c0 .894-.757 1.654-1.664 1.654H4.69c-.88 0-1.664-.77-1.664-1.654l.05-3.96-.05-9.573V1.654C3.027.787 3.82 0 4.69 0h8.76c.275 0 .544.108.736.303l6.252 6.147c.124.128.201.283.248.458zM16.53 15.76c0 .642-.477 1.13-1.089 1.13-.632 0-1.109-.488-1.109-1.11v-.02a1.1 1.1 0 112.198 0zm-7.458 0c0 .642-.478 1.13-1.1 1.13a1.09 1.09 0 01-1.099-1.11v-.02c0-.622.478-1.119 1.09-1.119.631.003 1.109.497 1.109 1.12z" fill="#5CB615" fill-rule="nonzero"/></svg>
